fs/speaker_settings_28_regular.svg

<svg viewBox="0 0 28 28" fill="none" xmlns="http://www.w3.org/2000/svg" height="1em" width="1em">
  <path d="M16.5 4.74407C16.5 3.65704 15.1932 3.09482 14.395 3.83838L9.45826 8.43667C9.13388 8.73881 8.70587 8.90696 8.26119 8.90696H5.25C3.45508 8.90696 2 10.3523 2 12.1351V15.6037C2 17.3865 3.45507 18.8318 5.25 18.8318H8.26174C8.70619 18.8318 9.134 18.9998 9.45832 19.3017L13.4318 23C13.1595 22.2351 13.008 21.413 13.0003 20.5565L10.484 18.2145C9.88165 17.6539 9.08715 17.3419 8.26174 17.3419H5.25C4.2835 17.3419 3.5 16.5637 3.5 15.6037V12.1351C3.5 11.1751 4.2835 10.3969 5.25 10.3969H8.26119C9.08703 10.3969 9.8819 10.0846 10.4843 9.52349L15 5.31735V15.3922C15.4428 14.9152 15.947 14.4958 16.5 14.1468V4.74407ZM16.7962 16.6982C17.111 17.7885 16.4566 18.9219 15.355 19.1944L14.3315 19.4477C14.2779 19.7902 14.25 20.1417 14.25 20.5C14.25 20.8749 14.2805 21.2423 14.3391 21.5998L15.3147 21.8348C16.4272 22.1027 17.0885 23.2477 16.7646 24.3452L16.4408 25.4427C16.9588 25.9033 17.5501 26.2773 18.194 26.5433L19.0368 25.6571C19.8253 24.8278 21.1476 24.828 21.9359 25.6576L22.7856 26.5517C23.4282 26.2889 24.0189 25.9187 24.5372 25.4622L24.2023 24.3024C23.8876 23.2122 24.5419 22.0788 25.6435 21.8062L26.6685 21.5526C26.7221 21.21 26.75 20.8584 26.75 20.5C26.75 20.1255 26.7195 19.7584 26.6611 19.4012L25.6839 19.1659C24.5713 18.898 23.91 17.7529 24.2339 16.6554L24.5582 15.5564C24.0402 15.0961 23.449 14.7223 22.8053 14.4565L21.9617 15.3436C21.1732 16.1728 19.8509 16.1726 19.0626 15.3431L18.213 14.449C17.5703 14.7119 16.9797 15.0823 16.4615 15.539L16.7962 16.6982ZM20.5 22C19.6716 22 19 21.3285 19 20.5C19 19.6716 19.6716 19 20.5 19C21.3284 19 22 19.6716 22 20.5C22 21.3285 21.3284 22 20.5 22Z" fill="#212121"/>
</svg>

<svg viewBox="0 0 28 28" fill="none" xmlns="http://www.w3.org/2000/svg" height="1em" width="1em">
  <path d="M16.5 4.744c0-1.087-1.307-1.65-2.105-.906L9.458 8.437c-.324.302-.752.47-1.197.47H5.25C3.455 8.907 2 10.352 2 12.135v3.469c0 1.783 1.455 3.228 3.25 3.228h3.012c.444 0 .872.168 1.196.47L13.432 23A7.473 7.473 0 0 1 13 20.556l-2.516-2.341a3.262 3.262 0 0 0-2.222-.873H5.25c-.966 0-1.75-.778-1.75-1.738v-3.469c0-.96.784-1.738 1.75-1.738h3.011c.826 0 1.62-.312 2.223-.874L15 5.317v10.075a7.534 7.534 0 0 1 1.5-1.245V4.744Zm.296 11.954a2 2 0 0 1-1.441 2.496l-1.024.254a6.803 6.803 0 0 0 .008 2.152l.976.235a2 2 0 0 1 1.45 2.51l-.324 1.098a6.23 6.23 0 0 0 1.753 1.1l.843-.886a2 2 0 0 1 2.899 0l.85.895a6.206 6.206 0 0 0 1.751-1.09l-.335-1.16a2 2 0 0 1 1.441-2.496l1.026-.253a6.807 6.807 0 0 0-.008-2.152l-.977-.235a2 2 0 0 1-1.45-2.51l.324-1.1a6.208 6.208 0 0 0-1.753-1.1l-.843.888a2 2 0 0 1-2.9 0l-.849-.895a6.202 6.202 0 0 0-1.752 1.09l.335 1.16ZM20.5 22a1.5 1.5 0 1 1 0-3 1.5 1.5 0 0 1 0 3Z" fill="#212121"/>
</svg>
